8/img/cat-slim-phone.svg

<svg width="50" height="53" viewBox="0 0 50 53" fill="none" xmlns="http://www.w3.org/2000/svg">
<circle cx="25" cy="28" r="25" fill="#68B738"/>
<g clip-path="url(#clip0_94_6)">
<path d="M35.2034 0H35.008C34.6778 0.187081 34.415 0.473924 34.2571 0.819588C33.968 1.37738 33.7453 1.96735 33.5937 2.57732C33.5612 2.76073 33.4688 2.92811 33.331 3.05315C33.1932 3.17818 33.0179 3.25377 32.8326 3.26804C32.2658 3.36597 31.7288 3.59243 31.2626 3.93012C30.7965 4.26781 30.4135 4.7078 30.1429 5.21649C29.7708 5.87697 29.4526 6.5665 29.1914 7.27835C28.4611 9.17526 27.9006 11.134 27.2114 13.0464C26.8874 13.9175 26.872 13.9175 25.8949 13.9175C24.7274 13.9175 24.8097 13.7371 24.7943 15.0258C24.7943 15.433 24.9177 15.6392 25.3497 15.6186C25.4834 15.6186 25.684 15.5515 25.7354 15.7268C25.7869 15.9021 25.612 15.9794 25.5091 16.0825C24.8994 16.7029 24.1276 17.1388 23.2823 17.3402C22.3051 17.6031 21.3074 17.8093 20.356 18.1289C17.9131 18.9485 15.6554 20.0928 13.8966 22.0309C12.8681 23.2347 12.0445 24.6001 11.4589 26.0722C9.57143 30.5258 8.656 35.2165 7.94629 39.9536C7.612 42.1753 7.37543 44.4072 7.19543 46.6546C7.10286 47.7577 7 48.8763 7 50H24.1411C24.1696 49.7731 24.1283 49.543 24.0229 49.3402C23.858 48.9289 23.5901 48.5672 23.2451 48.29C22.9 48.0128 22.4895 47.8295 22.0531 47.7577C21.6931 47.6753 21.652 47.567 21.8731 47.2835C22.2338 46.801 22.5103 46.2607 22.6909 45.6856C23.5291 43.2062 23.8531 40.6186 24.2594 38.0567C24.4889 36.0999 25.0894 34.2051 26.0286 32.4742C26.7611 31.2002 27.7382 30.0842 28.9034 29.1907C29.3303 28.866 29.3457 28.866 29.4177 29.4175C29.4691 29.7835 29.4794 30.1598 29.5051 30.5309C29.6595 32.9662 29.6285 35.4097 29.4126 37.8402C29.2184 39.7242 29.1926 41.6217 29.3354 43.5103C29.5399 45.7029 29.9304 47.8739 30.5029 50H37.3429C37.2536 49.442 36.9973 48.9243 36.6078 48.5156C36.2184 48.1069 35.7143 47.8264 35.1623 47.7113C34.5177 47.6087 33.8587 47.6438 33.2286 47.8144C32.92 47.8866 32.7914 47.8144 32.7657 47.4794C32.5529 44.7505 32.7261 42.0051 33.28 39.3247C33.966 36.2304 34.4912 33.1025 34.8537 29.9536C34.9887 28.6819 35.3881 27.4528 36.0263 26.3454C36.6383 25.2526 37.1731 24.1186 37.7749 23.0206C38.0138 22.6214 38.1575 22.1723 38.195 21.7083C38.2325 21.2443 38.1626 20.7779 37.9909 20.3454C37.852 19.9794 37.7183 19.6082 37.5486 19.2577C37.0343 18.2526 36.52 17.2577 36.0469 16.2423C35.7949 15.7268 35.8514 15.6649 36.412 15.6495C37.2503 15.6495 37.2503 15.6495 37.2657 14.8041C37.2657 14.6907 37.2657 14.5773 37.2657 14.4639C37.2657 14.1082 37.132 13.9124 36.7514 13.9485C36.4943 13.9485 36.2371 13.9485 35.9697 13.9485C35.6149 13.9485 35.512 13.799 35.5994 13.433C35.7729 12.838 36.1142 12.306 36.5823 11.9009C37.0503 11.4958 37.6252 11.2349 38.2377 11.1495C39.3772 11.0505 40.5251 11.1252 41.6423 11.3711C41.7712 11.4118 41.9109 11.4001 42.0312 11.3383C42.1515 11.2766 42.2427 11.1699 42.2851 11.0412C42.4909 10.5258 42.7171 10.0103 42.9486 9.49484C43.001 9.40339 43.0242 9.29801 43.015 9.19293C43.0058 9.08785 42.9647 8.98812 42.8971 8.90722C41.2514 6.81443 39.4669 4.86082 37.0343 3.60825C36.9168 3.55754 36.8138 3.47814 36.7347 3.3773C36.6557 3.27646 36.6031 3.15738 36.5817 3.03093C36.444 2.29408 36.225 1.57487 35.9286 0.886598C35.7895 0.519904 35.5349 0.20865 35.2034 0V0Z" fill="black"/>
</g>
<defs>
<clipPath id="clip0_94_6">
<rect width="36" height="50" fill="white" transform="translate(7)"/>
</clipPath>
</defs>
</svg>

<svg width="50" height="53" fill="none" xmlns="http://www.w3.org/2000/svg"><circle cx="25" cy="28" r="25" fill="#68B738"/><g clip-path="url(#a)"><path d="M35.203 0h-.195c-.33.187-.593.474-.75.82a8.028 8.028 0 0 0-.664 1.757.84.84 0 0 1-.761.691 3.77 3.77 0 0 0-2.69 1.948c-.372.661-.69 1.35-.952 2.062-.73 1.897-1.29 3.856-1.98 5.768-.324.872-.339.872-1.316.872-1.168 0-1.085-.18-1.1 1.108 0 .407.123.613.555.593.133 0 .334-.067.385.108.052.175-.123.252-.226.355a4.626 4.626 0 0 1-2.227 1.258c-.977.263-1.975.47-2.926.789-2.443.82-4.7 1.964-6.46 3.902a14.436 14.436 0 0 0-2.437 4.041c-1.888 4.454-2.803 9.145-3.513 13.882a97.062 97.062 0 0 0-.75 6.7C7.102 47.759 7 48.877 7 50h17.141a1.126 1.126 0 0 0-.118-.66 2.577 2.577 0 0 0-1.97-1.582c-.36-.083-.401-.191-.18-.475.36-.482.637-1.022.818-1.597.838-2.48 1.162-5.067 1.568-7.63.23-1.956.83-3.85 1.77-5.582a11.126 11.126 0 0 1 2.874-3.283c.427-.325.443-.325.515.227.051.366.061.742.087 1.113a48.166 48.166 0 0 1-.092 7.31 31.866 31.866 0 0 0-.078 5.67A38.826 38.826 0 0 0 30.503 50h6.84a2.79 2.79 0 0 0-2.18-2.289 4.62 4.62 0 0 0-1.934.103c-.309.073-.438 0-.463-.335a29.113 29.113 0 0 1 .514-8.154 91.803 91.803 0 0 0 1.574-9.371 9.163 9.163 0 0 1 1.172-3.609c.612-1.092 1.147-2.226 1.749-3.324a3.031 3.031 0 0 0 .216-2.676c-.139-.366-.273-.737-.442-1.087-.515-1.005-1.029-2-1.502-3.016-.252-.515-.196-.577.365-.593.838 0 .838 0 .854-.845v-.34c0-.356-.134-.552-.515-.516h-.781c-.355 0-.458-.149-.37-.515a3.217 3.217 0 0 1 2.638-2.284 11.291 11.291 0 0 1 3.404.222.513.513 0 0 0 .643-.33c.206-.515.432-1.03.664-1.546a.517.517 0 0 0-.052-.588c-1.646-2.093-3.43-4.046-5.863-5.299a.767.767 0 0 1-.452-.577 10.123 10.123 0 0 0-.653-2.144A1.803 1.803 0 0 0 35.203 0Z" fill="#000"/></g><defs><clipPath id="a"><path fill="#fff" transform="translate(7)" d="M0 0h36v50H0z"/></clipPath></defs></svg>
